resources/haticons/SVG/mobile.svg

<!-- Generated by IcoMoon.io -->
<svg version="1.1" xmlns="http://www.w3.org/2000/svg" width="24" height="24" viewBox="0 0 24 24">
<title>mobile</title>
<path d="M17.25 0h-10.5c-1.238 0-2.25 1.013-2.25 2.25v19.5c0 1.237 1.012 2.25 2.25 2.25h10.5c1.237 0 2.25-1.013 2.25-2.25v-19.5c0-1.237-1.013-2.25-2.25-2.25zM9 1.125h6v0.75h-6v-0.75zM12 22.5c-0.828 0-1.5-0.672-1.5-1.5s0.672-1.5 1.5-1.5 1.5 0.672 1.5 1.5-0.672 1.5-1.5 1.5zM18 18h-12v-15h12v15z"></path>
</svg>

<svg xmlns="http://www.w3.org/2000/svg" width="24" height="24"><path d="M17.25 0H6.75A2.257 2.257 0 0 0 4.5 2.25v19.5A2.257 2.257 0 0 0 6.75 24h10.5a2.257 2.257 0 0 0 2.25-2.25V2.25A2.257 2.257 0 0 0 17.25 0zM9 1.125h6v.75H9v-.75zM12 22.5a1.5 1.5 0 1 1 .001-3.001A1.5 1.5 0 0 1 12 22.5zm6-4.5H6V3h12v15z"/></svg>
